X:35
T: Rózsa, Rózsa, Bazsarózsa
O: Kistelek (Csongrád), Paragi Józsefné - Magyar Erzsébet (42), 1952.02
Q: "Tempo guisto" 1/4=96
M:4/4
L:1/4
K:G
A>B GA | B/A/G/F/ | E<D D z | 
d A B<c | B/A/d/B/ | G<A A z | 
d>A B<c | B/A/d/B/ G/F/G/A/ | F<E D z | 
A>B GA | B/A/G/F/ | E<D D z | 

